packages/foundations/assets/icons/functional/images/human/clothes_hanger_12.svg

<svg width="12" height="12" viewBox="0 0 12 12" fill="none" xmlns="http://www.w3.org/2000/svg">
<g clip-path="url(#clip0_232_251)">
<path fill-rule="evenodd" clip-rule="evenodd" d="M5.99731 2.10001C6.99282 2.10001 7.79983 2.90702 7.79983 3.90253C7.79983 4.62505 7.41267 5.10046 6.70594 5.52059C6.66856 5.54281 6.61869 5.59086 6.60407 5.69143L9.93032 7.13593C10.6602 7.45525 10.993 8.3058 10.6737 9.03568C10.4583 9.52792 9.98896 9.85687 9.4589 9.89607L2.64753 9.90001C1.85085 9.90001 1.20502 9.25417 1.20502 8.45749C1.20502 7.92021 1.5032 7.4307 1.97311 7.18233C4.25811 6.1884 5.40062 5.68985 5.40062 5.68985C5.40797 5.48415 5.44558 5.2953 5.55094 5.07751C5.66657 4.83852 5.8467 4.63536 6.09275 4.48909C6.47378 4.26258 6.59983 4.1078 6.59983 3.90253C6.59983 3.56976 6.33007 3.30001 5.99731 3.30001C5.7408 3.30001 5.45196 3.49133 5.37897 3.75876C5.29233 4.0786 4.96282 4.26766 4.64297 4.18103C4.32313 4.0944 4.13407 3.76488 4.2207 3.44504C4.43157 2.66649 5.17726 2.10001 5.99731 2.10001ZM5.76236 6.83483L2.55033 8.23532C2.46205 8.27393 2.40502 8.36114 2.40502 8.45749C2.40502 8.57469 2.47484 8.67784 2.63285 8.70001H9.35214C9.44849 8.70001 9.5357 8.64297 9.57432 8.5547C9.62129 8.44733 9.58432 8.32443 9.49214 8.25942L6.28243 6.8524C6.17052 6.80564 6.07548 6.78226 5.99731 6.78226C5.92731 6.78226 5.84899 6.79978 5.76236 6.83483Z" fill="#1A1C1F"/>
</g>
<defs>
<clipPath id="clip0_232_251">
<rect width="12" height="12" fill="white"/>
</clipPath>
</defs>
</svg>

<svg xmlns="http://www.w3.org/2000/svg" width="12" height="12" fill="none"><g clip-path="url(#a)"><path fill="#1A1C1F" fill-rule="evenodd" d="M5.997 2.1c.996 0 1.803.807 1.803 1.803 0 .722-.387 1.197-1.094 1.618-.037.022-.087.07-.102.17L9.93 7.136a1.443 1.443 0 0 1-.471 2.76L2.648 9.9a1.443 1.443 0 0 1-.675-2.718L5.401 5.69a1.45 1.45 0 0 1 .15-.612c.116-.24.296-.443.542-.589.38-.226.507-.381.507-.586a.603.603 0 0 0-.603-.603c-.256 0-.545.191-.618.459a.6.6 0 0 1-1.158-.314c.21-.779.956-1.345 1.776-1.345m-.235 4.735-3.212 1.4a.24.24 0 0 0-.145.222c0 .118.07.22.228.243h6.72a.243.243 0 0 0 .14-.44l-3.21-1.408a.8.8 0 0 0-.286-.07.6.6 0 0 0-.235.053" clip-rule="evenodd"/></g><defs><clipPath id="a"><path fill="#fff" d="M0 0h12v12H0z"/></clipPath></defs></svg>
